X: 4
T: The Curragh Races
R: reel
M: 4/4
L: 1/8
K: Ador
|: eAcA eAcA | ~G2 GB dGBd | eAcA eAcA | dBGA cA A2|
eA (3BcA eA (3BcA | ~G2 BG dGAB | c2 cA BG~G2 | dBGA BA A2 :|
|: c2 ec gcec | c2 eg dBGB | vc2 ec gcec | dBGA BA~A2 |
c2 eA gAeA | cege dBGB | vc2 cA B.G.G.G | dBGA BA A2 :|


Tune 1760	Setting 15206

